neru-light-classic/32x32/apps/minecraft.svg

<?xml version="1.0" encoding="UTF-8" standalone="no"?>
<svg
   xmlns:dc="http://purl.org/dc/elements/1.1/"
   xmlns:cc="http://creativecommons.org/ns#"
   xmlns:rdf="http://www.w3.org/1999/02/22-rdf-syntax-ns#"
   xmlns:svg="http://www.w3.org/2000/svg"
   xmlns="http://www.w3.org/2000/svg"
   xmlns:sodipodi="http://sodipodi.sourceforge.net/DTD/sodipodi-0.dtd"
   xmlns:inkscape="http://www.inkscape.org/namespaces/inkscape"
   height="32"
   width="32"
   version="1"
   id="svg398"
   sodipodi:docname="minecraft.svg"
   inkscape:version="0.92.1 r">
  <metadata
     id="metadata404">
    <rdf:RDF>
      <cc:Work
         rdf:about="">
        <dc:format>image/svg+xml</dc:format>
        <dc:type
           rdf:resource="http://purl.org/dc/dcmitype/StillImage" />
      </cc:Work>
    </rdf:RDF>
  </metadata>
  <defs
     id="defs402" />
  <sodipodi:namedview
     pagecolor="#ffffff"
     bordercolor="#666666"
     borderopacity="1"
     objecttolerance="10"
     gridtolerance="10"
     guidetolerance="10"
     inkscape:pageopacity="0"
     inkscape:pageshadow="2"
     inkscape:window-width="640"
     inkscape:window-height="480"
     id="namedview400"
     showgrid="false"
     inkscape:zoom="6.3197669"
     inkscape:cx="-31.089047"
     inkscape:cy="8.5244137"
     inkscape:current-layer="svg398" />
  <rect
     style="opacity:1;fill:#6b6b6b;fill-opacity:1;fill-rule:evenodd;stroke:none;stroke-width:1.03534329;stroke-linecap:round;stroke-linejoin:bevel;stroke-miterlimit:4;stroke-dasharray:none;stroke-dashoffset:0;stroke-opacity:1"
     id="rect4497-3-3-6"
     width="28.203388"
     height="28.203388"
     x="1.8983059"
     y="1.8983059"
     ry="5.575182" />
  <path
     style="opacity:1;fill:#785439;fill-opacity:1;fill-rule:evenodd;stroke:none;stroke-width:1.03534329;stroke-linecap:round;stroke-linejoin:bevel;stroke-miterlimit:4;stroke-dasharray:none;stroke-dashoffset:0;stroke-opacity:1"
     d="M 8.8535156 30.101562 L 8.8535156 23.146484 L 1.8984375 23.146484 L 1.8984375 24.527344 C 1.8984375 27.615995 4.3840054 30.101562 7.4726562 30.101562 L 8.8535156 30.101562 z "
     id="path4999" />
  <path
     style="opacity:1;fill:#583c28;fill-opacity:1;fill-rule:evenodd;stroke:none;stroke-width:1.03534329;stroke-linecap:round;stroke-linejoin:bevel;stroke-miterlimit:4;stroke-dasharray:none;stroke-dashoffset:0;stroke-opacity:1"
     d="M 16 30.101562 L 16 23.146484 L 8.8535156 23.146484 L 8.8535156 30.101562 L 16 30.101562 z "
     id="path5002" />
  <path
     style="opacity:1;fill:#b8845b;fill-opacity:1;fill-rule:evenodd;stroke:none;stroke-width:1.03534329;stroke-linecap:round;stroke-linejoin:bevel;stroke-miterlimit:4;stroke-dasharray:none;stroke-dashoffset:0;stroke-opacity:1"
     d="M 23.146484 30.101562 L 23.146484 23.146484 L 16 23.146484 L 16 30.101562 L 23.146484 30.101562 z "
     id="path5005" />
  <path
     style="opacity:1;fill:#956b49;fill-opacity:1;fill-rule:evenodd;stroke:none;stroke-width:1.03534329;stroke-linecap:round;stroke-linejoin:bevel;stroke-miterlimit:4;stroke-dasharray:none;stroke-dashoffset:0;stroke-opacity:1"
     d="M 30.101562 23.146484 L 23.146484 23.146484 L 23.146484 30.101562 L 24.527344 30.101562 C 27.615995 30.101563 30.101564 27.615995 30.101562 24.527344 L 30.101562 23.146484 z "
     id="path5008" />
  <path
     style="opacity:1;fill:#785439;fill-opacity:1;fill-rule:evenodd;stroke:none;stroke-width:1.03534329;stroke-linecap:round;stroke-linejoin:bevel;stroke-miterlimit:4;stroke-dasharray:none;stroke-dashoffset:0;stroke-opacity:1"
     d="M 8.8535156 23.146484 L 8.8535156 16 L 1.8984375 16 L 1.8984375 23.146484 L 8.8535156 23.146484 z "
     id="path5011" />
  <path
     style="opacity:1;fill:#6b6b6b;fill-opacity:1;fill-rule:evenodd;stroke:none;stroke-width:1.03534329;stroke-linecap:round;stroke-linejoin:bevel;stroke-miterlimit:4;stroke-dasharray:none;stroke-dashoffset:0;stroke-opacity:1"
     d="M 23.146484 23.146484 L 23.146484 16 L 16 16 L 16 23.146484 L 23.146484 23.146484 z "
     id="path5014" />
  <path
     style="opacity:1;fill:#9bca6b;fill-opacity:1;fill-rule:evenodd;stroke:none;stroke-width:1.03534329;stroke-linecap:round;stroke-linejoin:bevel;stroke-miterlimit:4;stroke-dasharray:none;stroke-dashoffset:0;stroke-opacity:1"
     d="M 30.101562 16 L 23.146484 16 L 23.146484 23.146484 L 30.101562 23.146484 L 30.101562 16 z "
     id="path5019" />
  <path
     style="opacity:1;fill:#72b248;fill-opacity:1;fill-rule:evenodd;stroke:none;stroke-width:1.03534329;stroke-linecap:round;stroke-linejoin:bevel;stroke-miterlimit:4;stroke-dasharray:none;stroke-dashoffset:0;stroke-opacity:1"
     d="M 30.101562 8.8535156 L 23.146484 8.8535156 L 23.146484 16 L 30.101562 16 L 30.101562 8.8535156 z "
     id="path5017" />
  <path
     style="opacity:1;fill:#956b49;fill-opacity:1;fill-rule:evenodd;stroke:none;stroke-width:1.03534329;stroke-linecap:round;stroke-linejoin:bevel;stroke-miterlimit:4;stroke-dasharray:none;stroke-dashoffset:0;stroke-opacity:1"
     d="M 23.146484 8.8535156 L 16 8.8535156 L 16 16 L 23.146484 16 L 23.146484 8.8535156 z "
     id="path5022" />
  <path
     style="opacity:1;fill:#956b49;fill-opacity:1;fill-rule:evenodd;stroke:none;stroke-width:1.03534329;stroke-linecap:round;stroke-linejoin:bevel;stroke-miterlimit:4;stroke-dasharray:none;stroke-dashoffset:0;stroke-opacity:1"
     d="M 16 16 L 8.8535156 16 L 8.8535156 23.146484 L 16 23.146484 L 16 16 z "
     id="path5027" />
  <path
     style="opacity:1;fill:#9bca6b;fill-opacity:1;fill-rule:evenodd;stroke:none;stroke-width:1.03534329;stroke-linecap:round;stroke-linejoin:bevel;stroke-miterlimit:4;stroke-dasharray:none;stroke-dashoffset:0;stroke-opacity:1"
     d="M 16 8.8535156 L 8.8535156 8.8535156 L 8.8535156 16 L 16 16 L 16 8.8535156 z "
     id="path5025" />
  <path
     style="opacity:1;fill:#60a036;fill-opacity:1;fill-rule:evenodd;stroke:none;stroke-width:1.03534329;stroke-linecap:round;stroke-linejoin:bevel;stroke-miterlimit:4;stroke-dasharray:none;stroke-dashoffset:0;stroke-opacity:1"
     d="M 23.146484 1.8984375 L 23.146484 8.8535156 L 30.101562 8.8535156 L 30.101562 7.4726562 C 30.101563 4.3840055 27.615995 1.8984375 24.527344 1.8984375 L 23.146484 1.8984375 z "
     id="path5037" />
  <path
     style="opacity:1;fill:#72b248;fill-opacity:1;fill-rule:evenodd;stroke:none;stroke-width:1.03534329;stroke-linecap:round;stroke-linejoin:bevel;stroke-miterlimit:4;stroke-dasharray:none;stroke-dashoffset:0;stroke-opacity:1"
     d="M 16 1.8984375 L 8.8535156 1.8984375 L 8.8535156 8.8535156 L 16 8.8535156 L 16 1.8984375 z "
     id="path5035" />
  <path
     style="opacity:1;fill:#56962c;fill-opacity:1;fill-rule:evenodd;stroke:none;stroke-width:1.03534329;stroke-linecap:round;stroke-linejoin:bevel;stroke-miterlimit:4;stroke-dasharray:none;stroke-dashoffset:0;stroke-opacity:1"
     d="M 16 1.8984375 L 16 8.8535156 L 23.146484 8.8535156 L 23.146484 1.8984375 L 16 1.8984375 z "
     id="path5032" />
  <path
     style="opacity:1;fill:#583c28;fill-opacity:1;fill-rule:evenodd;stroke:none;stroke-width:1.03534329;stroke-linecap:round;stroke-linejoin:bevel;stroke-miterlimit:4;stroke-dasharray:none;stroke-dashoffset:0;stroke-opacity:1"
     d="M 1.8984375 8.8535156 L 1.8984375 16 L 8.8535156 16 L 8.8535156 8.8535156 L 1.8984375 8.8535156 z "
     id="path5030" />
  <path
     style="opacity:1;fill:#56962c;fill-opacity:1;fill-rule:evenodd;stroke:none;stroke-width:1.03534329;stroke-linecap:round;stroke-linejoin:bevel;stroke-miterlimit:4;stroke-dasharray:none;stroke-dashoffset:0;stroke-opacity:1"
     d="M 1.8984375 8.8535156 L 8.8535156 8.8535156 L 8.8535156 1.8984375 L 7.4726562 1.8984375 C 4.3840055 1.8984375 1.8984375 4.3840055 1.8984375 7.4726562 L 1.8984375 8.8535156 z "
     id="rect4497-3-3" />
</svg>

<svg xmlns="http://www.w3.org/2000/svg" height="32" width="32" version="1"><rect width="28.203" height="28.203" x="1.898" y="1.898" ry="5.575" fill="#6b6b6b" fill-rule="evenodd"/><path d="M8.854 30.102v-6.956H1.898v1.381a5.561 5.561 0 0 0 5.575 5.575h1.38z" fill="#785439" fill-rule="evenodd"/><path d="M16 30.102v-6.956H8.854v6.956H16z" fill="#583c28" fill-rule="evenodd"/><path d="M23.146 30.102v-6.956H16v6.956h7.146z" fill="#b8845b" fill-rule="evenodd"/><path d="M30.102 23.146h-6.956v6.956h1.381a5.561 5.561 0 0 0 5.575-5.575v-1.38z" fill="#956b49" fill-rule="evenodd"/><path d="M8.854 23.146V16H1.898v7.146h6.956z" fill="#785439" fill-rule="evenodd"/><path d="M23.146 23.146V16H16v7.146h7.146z" fill="#6b6b6b" fill-rule="evenodd"/><path d="M30.102 16h-6.956v7.146h6.956V16z" fill="#9bca6b" fill-rule="evenodd"/><path d="M30.102 8.854h-6.956V16h6.956V8.854z" fill="#72b248" fill-rule="evenodd"/><path d="M23.146 8.854H16V16h7.146V8.854zM16 16H8.854v7.146H16V16z" fill="#956b49" fill-rule="evenodd"/><path d="M16 8.854H8.854V16H16V8.854z" fill="#9bca6b" fill-rule="evenodd"/><path d="M23.146 1.898v6.956h6.956V7.473a5.561 5.561 0 0 0-5.575-5.575h-1.38z" fill="#60a036" fill-rule="evenodd"/><path d="M16 1.898H8.854v6.956H16V1.898z" fill="#72b248" fill-rule="evenodd"/><path d="M16 1.898v6.956h7.146V1.898H16z" fill="#56962c" fill-rule="evenodd"/><path d="M1.898 8.854V16h6.956V8.854H1.898z" fill="#583c28" fill-rule="evenodd"/><path d="M1.898 8.854h6.956V1.898H7.473a5.561 5.561 0 0 0-5.575 5.575v1.38z" fill="#56962c" fill-rule="evenodd"/></svg>
